X:1
T:Les Miserables Medley
T:Les Miserables Medley
T:Claude- Michel Schonberg arr. Kristen Collins 
C:Claude- Michel Schonberg, arr. Kristen Collins
%%score 1 2 3 4
L:1/8
M:4/4
K:Db
V:1 bass nm="Trombone" snm="Tbn."
V:2 bass nm="Trombone" snm="Tbn."
V:3 bass nm="Trombone" snm="Tbn."
V:4 bass nm="Bass Trombone" snm="B. Tbn."
V:1
"^Look Down" z4 z2 z!fff![Q:1/4=75] B,, | E,6 z B,, | E,F,G,F, E,2 z B,, | E,6 z B,, | %4
 D,B,,B,,A,, B,,2 z E | A2 z E A2 z E | AB=B_B A2 z E | A2 z E A2 z E | GEED GEED | %9
 GEED!sfz! !fermata!E4 |[K:Ab]!mp! A,A, A,A,/A,/ A,/A,/A, A,A, | G,/G,/G, G,G,/G,/ G,G,G,G, | %12
 A,A, A,A,/A,/ A,/A,/A, A,A, | G,/G,/G, G,G,/G,/ G,G,G,G, | A,A, A,A,/A,/ A,/A,/A, A,A, | %15
 G,/G,/G, G,G,/G,/ G,G,G,G, | A,A, A,A,/A,/ A,/A,/A, A,A, | G,/G,/G, G,G,/G,/ G,G,G,G, | %18
 A,A, A,A,/A,/ A,/A,/A, A,A, | G,/G,/G, G,G,/G,/ G,G,G,G, | A,A, A,A,/A,/ A,/A,/A, A,A, | %21
 G,/G,/G, G,G,/G,/ G,G,G,G, | A,A, A,A,/A,/ A,/A,/A, A,A, | G,/G,/G, G,G,/G,/ G,G,G,G, | %24
 A,A, A,A,/A,/ A,/A,/A, A,A, | A,A, A,A,/A,/ A,/A,/A, A,A, | G,/G,/G, G,G,/G,/ G,G,G,G, | %27
 A,A, A,A,/A,/ A,/A,/A, A,A, | G,/G,/G, G,G,/G,/ G,G,G,G, | A,A, A,A,/A,/ A,4- | A,8 | %31
[K:Eb]!p!"^I Dream a Dream"!<(! E E2 E E E2 E!<)! |!f! EE G,/B,/E/G/ F2 EG | E E2 E E4 |: %34
 z3/2!ff! E/ E>E E>D E>F | G8 | z3/2 E/ E>E EEFG | C E4 z z2 | z3/2 G/ G>G GFGA | B4 z4 | %40
 z GGG GGAB | C E6 z :| z2 =E>F G>E C>B, | A,6 z2 | z2 =E>F G>E C>B, | =A, F3 z4 | %46
 z2 D>E F>E B,>A, | _G,6 z2 | z4 F>E D>F | E4 F4 | G4 A4 | B8 | %52
[K:Bb][M:2/4]"^Master of the House" z[Q:1/4=92] G,/G,/ z G, | z G,/G,/ z G, | z G,/G,/ z G, | %55
 z G,/G,/ z G, | D,/.G,D,/ G,2 | D,/.G,D,/ G,2 | D,/.G,D,/ G,D, | C,/^F,C,/ F,2 | z4 | %61
 C,/^F,C,/ F,2 | C,/^F,C,/ F,2 | C,/^F,C,/ F,D, | B,,/C,/^C,/D,/ E, z | z4 | z E,/E,/- E,E,/F,/ | %67
 G,4 | z G,/G,/ z G,/!-(!A,/ | !-)!B,/4A,/4B,3/2- B,B, | A,A, A,A, | .A, z G,=E, | ^F, z G, z | %73
 A, z z2 |[K:G]!ff! .G,/.G,/.G,/.G,/ .D,2 | .G,/.G,/.G,/.G,/ .D,2 | .G,/.G,/.G,/.G,/ G,/F,/G,/A,/ | %77
 .B,.G, .D, z | .G,/.G,/.G,/.G,/ .D,2 | .G,/.G,/.G,/.G,/ .D,2 | .G,/.G,/.G,/.G,/ G,/F,/G,/A,/ | %81
 .B,.G, .D, z | A,/A,/A,/A,/ A,G,/G,/- | G, z z2 | F,/F,/F,/F,/ F,E,/D,/- | D, z F,/ z/ F,/F,/ | %86
 F,/F,/F,/F,/ F,E,/E,/ | E,/D,/D,/D,/ E,/E,/D,/D,/ | B,, D,3 |!ff! .G,/.G,/.G,/.G,/ .D,2 | %90
 .G,/.G,/.G,/.G,/ .D,2 | .G,/.G,/.G,/.G,/ G,/F,/G,/A,/ | .B,.G, .D, z | .G,/.G,/.G,/.G,/ .D,2 | %94
 .G,/.G,/.G,/.G,/ .D,2 | .G,/.G,/.G,/.G,/ G,/F,/G,/A,/ | .B,.G, .D, z | A,/A,/A,/A,/ A,G,/G,/- | %98
 G, z z2 | B,/B,/B,/B,/ CB,/A,/ | G, z z/ z/ z/ B,/ | C/C/C/C/ CC/C/ | C/C/C/C/ C/C/B,/A,/ | %103
 G, z3 |!ff! .G,/.G,/.G,/.G,/ .D,2 | .G,/.G,/.G,/.G,/ .D,2 | .G,/.G,/.G,/.G,/ G,/F,/G,/A,/ | %107
 .B,.G, .D, z | .G,/.G,/.G,/.G,/ .D,2 | .G,/.G,/.G,/.G,/ .D,2 | .G,/.G,/.G,/.G,/ G,/F,/G,/A,/ | %111
 .B,.G, .D, z | A,/A,/A,/A,/ A,G,/G,/- | G, z z2 | F,/F,/F,/F,/ F,E,/D,/- | D, z F,/ z/ F,/F,/ | %116
 F,/F,/F,/F,/ F,E,/E,/ | E,/D,/D,/D,/ E,/E,/D,/D,/ | B,,D, z2 |!ff! .G,/.G,/.G,/.G,/ .D,2 | %120
 .G,/.G,/.G,/.G,/ .D,2 | .G,/.G,/.G,/.G,/ G,/F,/G,/A,/ | .B,.G, .D, z | .G,/.G,/.G,/.G,/ .D,2 | %124
 .G,/.G,/.G,/.G,/ .D,2 | .G,/.G,/.G,/.G,/ G,/F,/G,/A,/ | .B,.G, .D, z | A,/A,/A,/A,/ A,G,/G,/- | %128
 G, z z2 | B,/B,/B,/B,/ CB,/A,/ | G, z2 z/ B,/ | C/C/C/C/ CC/C/ | C/C/C/C/ C/C/B,/A,/ | G, z3 | %134
[K:D]"^take a breather...\nG.P\n" z4 |[M:4/4]"^On My Own"[Q:1/4=60]!p! F2 E2 D2 G2 | F2 E2 D2 G2 | %137
 F2 E2 D2 G2 | F2 E2 D2 G2 | F2 E2 D2 G2 | F2 E2 D2 G2 | F2 E2 D2 G2 |[M:2/4] D,F, B,2 | %143
[M:3/4] z6 |[M:4/4] z8 | z8 | z8 | z8 | z8 | z8 |[M:2/4] z4 |[M:3/4] z6 |[M:4/4] z8 | z8 | %154
"^G.P" z8 ||[K:Ab][M:6/8]"^Do You Hear the People Sing? Finale"[Q:3/8=80]!f! A,2 B, C2 D | %156
 E2- E CB,A, | G,2 F, G,-G,A, | E,3 F,E,D, | C,2 E, A,2 C | B,2 =A, B,2 E, | A,2 G, G,-G,A, | %162
 B,3 C2 B, | A,2 B, C2 D | E2- E CB,A, | G,2 F, G,-G,A, | E,3 F,E,D, | C,2 E, A,2 C | %168
 B,=A,B, D2 G, | A,4- A,2 | z6 | z6 | z6 | z6 | z6 | z6 | z6 | z6 | z6 | z6 | z6 | z6 | z6 | %183
!f! z2 z[Q:3/8=86] C2 B, | A,2 B, C2 D | E3 CB,A, | G,2 F, G,2 A, | E,3 F,E,D, | C,2 E, A,2 C | %189
 B,2 =A, B,2 E, | A,2 G, G,2 A, | B,3 C2 B, | A,2 B, C2 D | E3 CB,A, | G,2 F, G,2 A, | E,3 F,E,D, | %196
 C,2 E, A,2 C | B,=A,B, D2 G, | E, z2!ff! .A2 !tenuto!A | !>!A6 |!f! !>!E3 z z2 | !>!A3 z z2 | %202
 !>!F3 z .E.D | !>!E3 z z2 | !>!C3 z z2 | !>!=D3 z z2 | F2 E E2 F | G3 z z2 | z6 |!<(! !>!A6- | %210
 A6- |!fff! A!<)! z z z z2 | z6 |!f! G,_G,=G, B,2 E, | E,3!ff! .A2 !tenuto!A | !>!A4 z2 | !>!_G6- | %217
 G6 | !>!F6- | F6 | !>!_F6 | z2 z B,C!fermata!B, |!ff! !>!A6 | !>!A z z4 |] %224
V:2
 z8 | z2!ff! .E>E E4 | z2 .D>D D4 | z2 .=B,>B, B,4 | z2 .B,>B, B,2 z E, | A,2 z E, A,2 z E, | %6
 A,B,=B,_B, A,2 z E, | A,2 z E, A,2 z E, | z4 G,E,E,D, | G,E,E,D,!sfz! !fermata!E,4 |[K:Ab] z8 | %11
 z8 | z7!f! C, | F,7 C, | F,7 C, | F,7 C, | F,7!ff! C, | F,3 C, F,3 C, | F,G,A,G, F,3 C, | %19
 F,3 C, F,3 C, | E,C,C,B,, C,3 C | F7/2 C/ F3 C | FG>AG F3 C | F3 C F3 C | ECCB, C3 C | %25
 F,7!ff! C, | F,3 C, F,3 C, | F,G,A,G, F,3 C, | F,3 C, F,3 C, | E,C,C,B,, C,4- | C,8 | %31
[K:Eb]!p!!<(! B, B,2 B, B, B,2 B,!<)! |!mf! B,B, z2 F/B,/B, B,2 | C C2 C C4 |: %34
 B, B,2 B, B, B,2 B, | C C2 C B, B,2 B, | C C2 C C C2 [CE] | C C3 D D3 | B, B,2 B, B, B,2 B, | %39
 E E2 E E E2 E | B, B,2 B, B, B,3 | B,3 B, C3 z :| C7/2 C/ G2 CB, | F,8 | =B,<C C>F, G,2 C>_B, | %45
 F, F3 z4 | ^A,3 z2 z B,F | ^F,2 z4 z z/ =B,/ | ^A,4 F2 D>F | ^A,4 F,4 | G,4 A,4 | B,2 z2 z4 | %52
[K:Bb][M:2/4] z E,/E,/ z E, | z E,/E,/ z E, | z E,/E,/ z E, | z E,/E,/ z E, | z!mp! E,/E,/ z E, | %57
 z E,/E,/ z E, | z E,/E,/ z E, | z ^F,/F,/ z F, | z ^F,/F,/ z F, | z ^F,/F,/ z F, | %62
 z ^F,/F,/ z F, | z ^F,/F,/ z F, | z E,/E,/ z z | z E,/E,/ z E, | z E,/E,/ z E, | z4 | C,4- | C,4 | %70
 A,,4- | A,,4 | z4 | z4 |[K:G] .B,,/.B,,/.B,,/.B,,/ .B,,2 | .B,,/.B,,/.B,,/.B,,/ .B,,2 | %76
 .B,,/.B,,/.B,,/.B,,/ .B,,2 | .B,,/.B,,/.B,,/.B,,/ .B,,2 | .B,,/.B,,/.B,,/.B,,/ .B,,2 | %79
 .B,,/.B,,/.B,,/.B,,/ .B,,2 | .B,,/.B,,/.B,,/.B,,/ .B,,2 | .B,,/.B,,/.B,,/.B,,/ .B,,2 | %82
 F,/F,/F,/F,/ F,E,/E,/- | E, z z D,/E,/ | F,/F,/F,/F,/ F,E,/D,/- | D, z z2 | B,,4 | D,4- | %88
 D, z z2 | .B,,/.B,,/.B,,/.B,,/ .B,,2 | .B,,/.B,,/.B,,/.B,,/ .B,,2 | .B,,/.B,,/.B,,/.B,,/ .B,,2 | %92
 .B,,/.B,,/.B,,/.B,,/ .B,,2 | .B,,/.B,,/.B,,/.B,,/ .B,,2 | .B,,/.B,,/.B,,/.B,,/ .B,,2 | %95
 .B,,/.B,,/.B,,/.B,,/ .B,,2 | .B,,/.B,,/.B,,/.B,,/ .B,,2 | F,/F,/F,/F,/ F,E,/E,/- | E, z z D,/E,/ | %99
 z4 | D, z z2 | B,,4 | D,4 | z2"^slow and nasty" !-(!F,2 | !-)!A,2 z2 | %105
 .B,,/.B,,/.B,,/.B,,/ .B,,2 | .B,,/.B,,/.B,,/.B,,/ .B,,2 | .B,,/.B,,/.B,,/.B,,/ .B,,2 | %108
 .B,,/.B,,/.B,,/.B,,/ .B,,2 | .B,,/.B,,/.B,,/.B,,/ .B,,2 | .B,,/.B,,/.B,,/.B,,/ .B,,2 | %111
 .B,,/.B,,/.B,,/.B,,/ .B,,2 | F,/F,/F,/F,/ F,E,/E,/- | E, z z D,/E,/ | F,/F,/F,/F,/ F,E,/D,/- | %115
 D, z z2 | B,,4 | D,4- | D, z z2 | .B,,/.B,,/.B,,/.B,,/ .B,,2 | .B,,/.B,,/.B,,/.B,,/ .B,,2 | %121
 .B,,/.B,,/.B,,/.B,,/ .B,,2 | .B,,/.B,,/.B,,/.B,,/ .B,,2 | .B,,/.B,,/.B,,/.B,,/ .B,,2 | %124
 .B,,/.B,,/.B,,/.B,,/ .B,,2 | .B,,/.B,,/.B,,/.B,,/ .B,,2 | .B,,/.B,,/.B,,/.B,,/ .B,,2 | %127
 F,/F,/F,/F,/ F,E,/E,/- | E, z z D,/E,/ | z4 | G, z2 z/ B,/ | C/C/C/C/ CC/C/ | %132
 C/C/C/C/ C/C/B,/A,/ | F, z z2 |[K:D] z4 |[M:4/4] z8 | z4 z2!mf! (A,D) | D2- D>D (ED) (E>A) | %138
 (F/E/D- D4) (A,>D) | D2- D>D (ED) (E>D) | (B,A,- A,4) (!tenuto!A,>!tenuto!A,) | %141
 (B,D- D>)D (CD) (E>F) |[M:2/4] (DF- F>)D |[M:3/4] G/F/E/D/ G/F/E/D/ G/F/E/D/ | %144
[M:4/4] B,A,- !breath!A,2 z2!mf! (A,D) | D2- D>D (ED) (E>A) | (F/E/D- D4) (A,>D) | %147
 D2- D>D (ED) (E>D) | (B,A,- A,4) (!tenuto!A,>!tenuto!A,) | (B,D- D>)D (CD) (E>F) | %150
[M:2/4] (DF- F>)!breath!D |[M:3/4] G/F/E/D/ G/F/E/D/ G/F/E/D/ |[M:4/4] DC- C2 D2 D2- | D8 | z8 || %155
[K:Ab][M:6/8] z6 | z6 | z6 | z6 | z6 | z6 | z6 | z6 | z6 | z6 | z6 | z6 | z6 | z6 | z6 | z6 | z6 | %172
!mp! z2 z C, z2 | z2 z C, z2 | z2 z C, z2 | z2 z C, z2 | z2 z B,, z2 | z2 z B,, z2 | z2 z C, z2 | %179
!p! z2!<(! z C, z2 | z2 z D, z2 | z2 z B,, z2 | z2 z!<)!!mf! .E2 !tenuto!E | E3 z z2 | %184
!mf! E,3 z z2 | A,3 z z2 | F,3 z E,D, | E,3 z z2 | C,3 z z2 | =D,3 z z2 | F,2 E, E,2 F, | %191
 G,3 z z2 | z6 | A,6 | G,2 F, G,2 A, | E,3 z z2 | z6 | G,_G,=G, B,2 E, | A,6 | z2 z!ff! C2 B, | %200
 A,2 B, C2 D | E3 CB,A, | G,2 F, G,2 A, | E,3 F,E,D, | C,2 E, A,2 C | B,2 =A, B,2 E, | %206
 A,2 G, G,2 A, | B,3 C2 B, | A,2 B, C2 D | E3 CB,A, | G,2 F, G,2 A, | E,3 F,E,D, | C,2 E, A,2 C | %213
 B,=A,B, D2 G, | A,3 z z2 | !>!A4 z2 | z2 z .B,2 !tenuto!B, | !>!B,4 z2 | z2 z .C2 !tenuto!C | %219
 !>!C4 z2 | z2 z .A,2 !tenuto!A, | !>!A,2 z B,C!fermata!B, |!ff! !>!E6 | !>!A z z4 |] %224
V:3
 z8 | z2!f! .B,>B, B,4 | z2 .B,>B, B,4 | z2 .B,>B, B,4 | z2 .G,>G, G,4 | z2 =B,>B, B,4 | %6
 z2 G>G G4 | z2 =E>E E4 | z4 G,E,E,D, | G,E,E,D,!sfz! !fermata!E,4 | %10
[K:Ab]!mp!!mp! F,F, F,F,/F,/ F,/F,/F, F,F, | F,/F,/F, F,F,/F,/ F,F,F,F, | %12
 F,F, F,F,/F,/ F,/F,/F, F,F, | F,/F,/F, F,F,/F,/ F,F,F,F, | F,F, F,F,/F,/ F,/F,/F, F,F, | %15
 F,/F,/F, F,F,/F,/ F,F,F,F, | F,F, F,F,/F,/ F,/F,/F, F,F, | F,/F,/F, F,F,/F,/ F,F,F,F, | %18
 F,F, F,F,/F,/ F,/F,/F, F,F, | F,/F,/F, F,F,/F,/ F,F,F,F, | F,F, F,F,/F,/ F,/F,/F, F,F, | %21
 F,/F,/F, F,F,/F,/ F,F,F,F, | F,F, F,F,/F,/ F,/F,/F, F,F, | F,/F,/F, F,F,/F,/ F,F,F,F, | %24
 F,F, F,F,/F,/ F,/F,/F, F,F, | F,F, F,F,/F,/ F,/F,/F, F,F, | F,/F,/F, F,F,/F,/ F,F,F,F, | %27
 F,F, F,F,/F,/ F,/F,/F, F,F, | F,/F,/F, F,F,/F,/ F,F,F,F, | F,F, F,F,/F,/ F,4- | F,8 | %31
[K:Eb]!<(! G, G,2 G, G, G,2 G,!<)! |!mf! G,G, z2 z G, G,2 | A, A,2 A, A,4 |: G, G,2 G, G, G,2 G, | %35
 G, G,2 G, G, G,2 G, | z3/2 E,/ E,>E, E,E,F,G, | A, A,3 B, B,3 | z3/2 G,/ G,>G, G,F,G,A, | %39
 C C2 C B, B,2 B, | A, A,2 A, A, A,3 | A, C6 z :| C,7/2 C,/ G,2 C,B,, | F,,8 | G,,4 F,,4 | %45
 B,,4 G,,4 | ^A,,4 F,,4 | ^F,,2 z4 z z/ =B,,/ | ^A,,4 F,2 D,>F, | ^A,,4 F,,4 | G,,4 A,,4 | %51
 B,2 z2 z4 |[K:Bb][M:2/4] z D,/D,/ z D, | z D,/D,/ z D, | z D,/D,/ z D, | z D,/D,/ z D, | %56
 z!mp! D,/D,/ z D, | z D,/D,/ z D, | z D,/D,/ z D, | z D,/D,/ z D, | z D,/D,/ z D, | %61
 z D,/D,/ z D, | z D,/D,/ z D, | z D,/D,/ z D, | z D,/D,/ z z | z D,/D,/ z D, | z D,/D,/ z D, | %67
 z4 | C,4- | C,4 | A,,4- | A,,4 | z4 | z4 |[K:G] D,G, D,G, | D,G, D,G, | D,G, D,G, | D,G, D,G, | %78
 D,G, D,G, | D,G, D,G, | D,G, D,G, | D,G, D,G, | D,G, D,G, | D,G, D,G, | B,, z B,, z | D, z z2 | %86
 B,,4 | D,4- | D, z z2 | D,G, D,G, | D,G, D,G, | D,G, D,G, | D,G, D,G, | D,G, D,G, | D,G, D,G, | %95
 D,G, D,G, | D,G, D,G, | D,G, D,G, | D,G, D,G, | B,, z B,, z | D, z z2 | B,,4 | D,4 | %103
 z .D, .E,.F, | z4 | D,G, D,G, | D,G, D,G, | D,G, D,G, | D,G, D,G, | D,G, D,G, | D,G, D,G, | %111
 D,G, D,G, | D,G, D,G, | D,G, D,G, | B,, z B,, z | D, z z2 | B,,4 | D,4- | D, z z2 | D,G, D,G, | %120
 D,G, D,G, | D,G, D,G, | D,G, D,G, | D,G, D,G, | D,G, D,G, | D,G, D,G, | D,G, D,G, | D,G, D,G, | %128
 D,G, D,G, | B,, z B,, z | G,, z2 z/ B,,/ | C,/C,/C,/C,/ C,C,/C,/ | C,/C,/C,/C,/ C,/C,/B,,/A,,/ | %133
 D, z z2 |[K:D] z4 |[M:4/4]!p! F,8 | D,8 | F,8 | D,8 | F,8 | D,8 | D,8 |[M:2/4] z4 | %143
[M:3/4] G,4 F,2 |[M:4/4] A,,6 z2 | D,2- D,2 D,2- D,2 | D,4 C,2- C,2 | B,,4 E,,2- E,,2 | %148
 A,,2- A,,2 ^G,,2- G,,2 | G,,4 F,,2- F,,2 |[M:2/4] B,,4 |[M:3/4] E,2- E,2 D,2 |[M:4/4] A,,4 z4 | %153
 z8 | z8 ||[K:Ab][M:6/8] z6 | z6 | z6 | z6 | z6 | z6 | z6 | z6 | z6 | z6 | z6 | z6 | z6 | z6 | z6 | %170
 z6 | A,, z z G,, z2 | F,, z z4 | F,, z z4 | C, z z4 | C, z z4 | B,, z z4 | B,, z z4 | F,, z z4 | %179
!p! F,3 E,3 | D,6 | B,,6 | E,,6 | z6 | z6 | z6 | z6 | z6 | z6 | z6 | F,2 E, E,2 F, | G,3 z z2 | %192
 z6 | z6 | z6 | z6 | z6 | z6 | A,6 | z2 z!ff! C2 B, | A,2 B, C2 D | E3 CB,A, | G,2 F, G,2 A, | %203
 E,3 F,E,D, | C,2 E, A,2 C | B,2 =A, B,2 E, | A,2 G, G,2 A, | B,3 C2 B, | A,2 B, C2 D | E3 CB,A, | %210
 G,2 F, G,2 A, | E,3 F,E,D, | C,2 E, A,2 C | B,=A,B, D2 G, | A,3 z z2 | !>!A,3!f! !>!E,3 | %216
 !>!B,6- | B,6 | !>!A,6- | A,6 | !>!A,6 | z2 z B,,C,!fermata!B,, |!ff! !>!A,,6 | !>!C, z z4 |] %224
V:4
 z8 | z2!f! .G,>G, G,4 | z2 .G,>G, G,4 | z2 .G,>G, G,4 | z2 .E,>E, E,4 | z2 A,>A, A,4 | z2 E>E E4 | %7
 z2 =B,>B, B,4 | z8 |!fff! G,,E,,E,,D,,!sfz! !fermata!E,,4 |[K:Ab]!mf! F,,3 F,, F,,3 C,, | %11
 F,,3 F,, F,,3 C,, | F,,3 F,, F,,3 C,, | F,,3 F,, F,,3 C,, | F,,3 F,, F,,3 C,, | %15
 F,,3 F,, F,,3 C,, | F,,3 F,, F,,3 C,, | F,,3 F,, F,,3 C,, | F,,3 F,, F,,3 C,, | %19
 F,,3 F,, F,,3 C,, | F,,3 F,, F,,3 C,, | F,,3 F,, F,,3 C,, | z8 | z8 | z8 | F,,3 F,, F,,3 C,, | %26
 F,,3 F,, F,,3 C,, | F,,3 F,, F,,3 C,, | F,,3 F,, F,,3 C,, | F,,3 F,, F,,3 F,, | C,,8 | %31
[K:Eb]!p!!<(! E,4 D,4!<)! |!mf! C,4 G,,4 | A,,4 B,,4 |: E,4 D,4 | C,4 B,,4 | G,,4 A,,4 | %37
 F,,4 A,,4 | E,4 D,4 | C,4 B,,4 | A,,4 G,,4 | F,,4 B,,4 :| =A,,4 A,,4 | F,,4 A,,4 | G,,4 F,,4 | %45
 B,,4 G,,4 | ^A,,4 F,,4 | ^F,,4 =B,,4 | A,,4 G,,4 | ^A,,4 F,,4 | E,,4 D,,4 | B,,,8 | %52
[K:Bb][M:2/4] .C, z G,,2 | .C, z G,,2 | .C, z G,,2 | .C, z G,,2 |!mp! .C, z G,,2 | .C, z G,,2 | %58
 .C, z G,,2 | .D, z =B,,2 | .D, z =B,,2 | .D, z =B,,2 | .D, z =B,,2 | .D, z =B,,2 | .C, z E,2 | %65
 .C, z G,,2 | .E, z D,,2 | .D, z =B,,2 | G,,4- | G,,4 | C,,4- | C,,4 | z4 | %73
 z"^loud and nasty"!fff! .D,, .=E,,.^F,, |[K:G]!mf! .C, z .G,, z | .C, z .G,, z | .C, z .G,, z | %77
 .C, z .G,, z | .C, z .G,, z | .C, z .G,, z |!mf! .C, z .G,, z | .C, z .G,, z | D, z A,, z | %83
 D, z A,, z | D,, z G,, z | D,, z G,, z | D,, z D, z | D,, z D, z | %88
 z"^loud and nasty"!fff! .D,, .E,,.F,, |!mf! .C, z .G,, z | .C, z .G,, z | .C, z .G,, z | %92
 .C, z .G,, z | .C, z .G,, z | .C, z .G,, z |!mf! .C, z .G,, z | .C, z .G,, z | D, z A,, z | %98
 D, z A,, z | B,, z ^D, z | D,, z G,, z | D,, z D, z | D,, z D, z | z2"^slow and nasty" !-(!F,,2 | %104
 !-)!A,,2 G,,2 | .C, z .G,, z | .C, z .G,, z | .C, z .G,, z | .C, z .G,, z | .C, z .G,, z | %110
!mf! .C, z .G,, z | .C, z .G,, z | D, z A,, z | D, z A,, z | D,, z G,, z | D,, z G,, z | %116
 D,, z D, z | D,, z D, z | z"^loud and nasty"!fff! .D,, .E,,.F,, |!mf! .C, z .G,, z | %120
 .C, z .G,, z | .C, z .G,, z | .C, z .G,, z | .C, z .G,, z | .C, z .G,, z |!mf! .C, z .G,, z | %126
 .C, z .G,, z | D, z A,, z | D, z A,, z | B,, z ^D, z | D,, z G,, z | D,, z D, z | D,, z D, z | %133
 G,, z z2 |[K:D] z4 |[M:4/4]!p! D,4 D,3 A,, | D,4 D,4 | D,4 D,4 | D,4 C,4 | B,,4 E,4 | A,,4 ^G,,4 | %141
 G,,4 F,,4 |[M:2/4] B,,4 |[M:3/4] E,4 D,2 |[M:4/4] A,,6 z2 | D,2- D,>D, (E,D,) (E,>A,) | %146
 z2 F,/E,/ D,4- D, | D,2- D,>D, (E,D,) (E,>D,) | z2 B,,A,,- A,,4 | (B,,D,- D,>)D, (C,D,) (E,>F,) | %150
[M:2/4] B,,4 |[M:3/4] G,2 F,2 E,2 |[M:4/4] D,4 z4 | z8 | z8 ||[K:Ab][M:6/8] z6 | z6 | z6 | z6 | %159
 z6 | z6 | z6 | z6 | z6 | z6 | z6 | z6 | z6 | z6 | z6 | z2 z!f! C,2 C, | F,2 _F, =F,2 G, | %172
 A,2 G, F,2 A, | G,2 F, E,2 F, | G,2 z z G,A, | B,2 A, G,2 A, | (2:3:2B,A, z G,B, | A,2 G, F,2 G, | %178
 A,2 z2 z F, |!<(! A,G,F, A,G,F, | A,G,F, A,G,A, | B,6!<)! | z6 | z6 | A,, z z A,, z z | %185
 C,, z z C,, z z | D,, z z D,, z z | A,, z z G,, z2 | F,, z z F,, z z | B,,, z z B,,, z z | %190
 E,,2 E,, E,,2 E,, | E,,3 z z2 | A,, z z A,, z z | C,, z z C,, z z | D,, z z D,, z z | %195
 A,, z z G,, z2 | F,, z z F,, z2 | B,,,=A,,,B,,, D,,2 G,,, | A,,,6- | A,,,6 |!f! A,, z z A,, z z | %201
 C,, z z C,, z z | D,, z z D,, z z | A,, z z G,, z2 | F,, z z F,, z z | B,,, z z B,,, z z | %206
 E,,2 E,, E,,2 E,, | E,,3 C,2 B,, | A,, z z A,, z z | C,, z z C,, z z | D,, z z D,, z z | %211
 A,, z z G,, z2 | F,, z z F,, z z | B,,,3 E,,3 | A,,,3 z z2 | z3!f! !>!E,,3 | !>!A,,6- | %217
 A,,3 !>!E,,3 | !>!A,,6- | A,,3 !>!E,,3 | !>!A,,6- | A,,2 z B,,C,!fermata!B,, |!ff! !>!A,,6 | %223
 !>!A,, z z4 |] %224

